webroot/icon/stream.svg

<svg width="24" height="24" viewBox="0 0 24 24" fill="none" xmlns="http://www.w3.org/2000/svg"><path d="M2.625 7H18.875C19.2203 7 19.5 6.72031 19.5 6.375V3.875C19.5 3.52969 19.2203 3.25 18.875 3.25H2.625C2.27969 3.25 2 3.52969 2 3.875V6.375C2 6.72031 2.27969 7 2.625 7ZM21.375 10.125H5.125C4.77969 10.125 4.5 10.4047 4.5 10.75V13.25C4.5 13.5953 4.77969 13.875 5.125 13.875H21.375C21.7203 13.875 22 13.5953 22 13.25V10.75C22 10.4047 21.7203 10.125 21.375 10.125ZM18.875 17H2.625C2.27969 17 2 17.2797 2 17.625V20.125C2 20.4703 2.27969 20.75 2.625 20.75H18.875C19.2203 20.75 19.5 20.4703 19.5 20.125V17.625C19.5 17.2797 19.2203 17 18.875 17Z" fill="black"/></svg>

<svg width="24" height="24" viewBox="0 0 24 24" fill="none" xmlns="http://www.w3.org/2000/svg"><path d="M2.625 7h16.25c.345 0 .625-.28.625-.625v-2.5a.625.625 0 00-.625-.625H2.625A.625.625 0 002 3.875v2.5c0 .345.28.625.625.625zm18.75 3.125H5.125a.625.625 0 00-.625.625v2.5c0 .345.28.625.625.625h16.25c.345 0 .625-.28.625-.625v-2.5a.625.625 0 00-.625-.625zM18.875 17H2.625a.625.625 0 00-.625.625v2.5c0 .345.28.625.625.625h16.25c.345 0 .625-.28.625-.625v-2.5a.625.625 0 00-.625-.625z" fill="#000"/></svg>
